X:140
T:Squirrel Hunter's Quick Step
M:2/4
L:1/16
K:G
%%MIDI channel 1
%%MIDI program 72
%%MIDI transpose 8
%%MIDI grace 1/8
%%MIDI ratio 3 1
Bd|e2>d2 B2BB|efed B2BA|GFGB d2dd|BABc d2>d2|efed BABd|
efed d2dc|GFGB dedd|B2A2A2::Bd|e2>e2|a2aa|edef g4|GBGB d2dd|
BGBc d4|ee2e a2aa|edef g4|GBGB dedd|B2A2A2:|
